!!!COM: Schubert, Franz
!!!CNT: Deutscher
!!!TXO: Deutsch
!!!LYR: Johann Wolfgang von Goethe
!!!OTL: "Geistesgruss"
!!!OPS: Op. 92
!!!ONM: No. 3
!!!ODT: 1815/
!!NB: Vocal melody only encoded.
!!NB: Original key
**kern
*clefG2
*k[f#c#g#d#]
*met(C)
*M4/4
*MM[Nicht zu langsam]
=4
{2b
8.a
16g#
8f#
8g#
=5
f#q
4e
4e}
2r
=6
{2.cc#
4f#
=7
4.a
8f#
4d#
8e
8f#
=8
2e}
2r
=9
{2g#
8.cc#
16cc#
8cc#
8b#
=10
8.dd#
16cc#
4cc#}
4r
{4cc#
=11
4.ee
8a#
4.cc#
8dd#
=12
2b}
2r
=13
2r
4r
8r
{8ddn
=14
*k[f#]
*M3/4
[4dd
8.dd]
16dd
8.cc
16a
=15
gq
aq
12g
12f#
12e
4d}
8r
{8cc
=16
[2b
8b]
8a
=17
8.g
16e
4B}
8r
{8f#
=18
4.g
8cc
8.dd
16g
=19
8.dd
16cc
4cc}
8r
{8cc
=20
4.a
8b
8.cc
16dd
=21
2g}
8r
{8d
=22
8.d
16e
8.f#
16g
8.a
16b
=23
[2cc
8cc]}
{8a
=24
4..cc
16a
8.f#
16c
=25
2B}
8r
{8B
=26
2e}
8r
{8e
=27
2f#}
8r
{8f#
=28
4.g
8g
8g
8cc
=29
2b}
8r
{8b
=30
4..dd
16g
8.b
16a
=31
2g}
4r
==
*-
